Themes/OneUI/assets/svg/sec_ic_settings_general.svg

<?xml version="1.0" encoding="UTF-8" standalone="no"?>
<svg
   width="28.000021"
   height="28.000021"
   viewBox="0 0 28.000021 28.000021"
   fill="none"
   version="1.1"
   id="svg2048"
   sodipodi:docname="sec_ic_settings_general.svg"
   xmlns:inkscape="http://www.inkscape.org/namespaces/inkscape"
   xmlns:sodipodi="http://sodipodi.sourceforge.net/DTD/sodipodi-0.dtd"
   xmlns="http://www.w3.org/2000/svg"
   xmlns:svg="http://www.w3.org/2000/svg">
  <sodipodi:namedview
     id="namedview2050"
     pagecolor="#ffffff"
     bordercolor="#666666"
     borderopacity="1.0"
     inkscape:showpageshadow="2"
     inkscape:pageopacity="0.0"
     inkscape:pagecheckerboard="0"
     inkscape:deskcolor="#d1d1d1" />
  <g
     clip-path="url(#clip0_1_1401)"
     id="g2041">
    <path
       d="M 24.856,3.14401 C 23.13,1.52161 20.7739,0.601214 18.1738,0.256914 15.6907,-0.072186 14,0.00881404 14,0.00881404 c 0,0 -1.691,-0.08100004 -4.17421,0.24809996 -2.6,0.3443 -4.956,1.264696 -6.6815,2.887096 -1.6228,1.7258 -2.543099,4.0819 -2.887599,6.6819 -0.3291004,2.48299 -0.2478004,4.17399 -0.2478004,4.17399 0,0 -0.0813,1.6908 0.2478004,4.174 0.3445,2.5998 1.264799,4.9561 2.887399,6.6819 1.7257,1.6226 4.0817,2.5428 6.6817,2.8875 C 12.309,28.0722 14,27.9912 14,27.9912 c 0,0 1.6907,0.081 4.1738,-0.2479 2.6001,-0.3447 4.9562,-1.2649 6.6818,-2.8875 1.623,-1.7258 2.5432,-4.0821 2.8877,-6.6819 0.3289,-2.4832 0.2479,-4.174 0.2479,-4.174 0,0 0.081,-1.691 -0.2479,-4.17399 -0.3445,-2.6 -1.2647,-4.9561 -2.8873,-6.6819 z"
       fill="#6b8ea6"
       id="path2037" />
    <path
       d="m 11.6322,17.8214 c 0.7701,0 1.4291,0.4785 1.6995,1.1559 h 7.3141 c 0.3805,0 0.6875,0.3071 0.6875,0.6875 0,0.3795 -0.307,0.6875 -0.6875,0.6875 h -7.3141 c -0.2704,0.6774 -0.9294,1.155 -1.6995,1.155 -0.7709,0 -1.429,-0.4776 -1.7004,-1.155 H 7.3542 c -0.3795,0 -0.6875,-0.308 -0.6875,-0.6875 0,-0.3804 0.308,-0.6875 0.6875,-0.6875 h 2.5776 c 0.2714,-0.6774 0.9295,-1.1559 1.7004,-1.1559 z m 5.0032,-5.6643 c 0.7709,0 1.4291,0.4785 1.7004,1.156 h 2.31 c 0.3805,0 0.6875,0.308 0.6875,0.6875 0,0.3795 -0.307,0.6875 -0.6875,0.6875 h -2.31 c -0.2713,0.6774 -0.9295,1.155 -1.7004,1.155 -0.7709,0 -1.4291,-0.4776 -1.6995,-1.155 H 7.3542 c -0.3795,0 -0.6875,-0.308 -0.6875,-0.6875 0,-0.3795 0.308,-0.6875 0.6875,-0.6875 h 7.5817 c 0.2704,-0.6775 0.9286,-1.156 1.6995,-1.156 z M 11.6322,6.49292 c 0.7701,0 1.4291,0.4785 1.6995,1.1559 h 7.3141 c 0.3805,0 0.6875,0.308 0.6875,0.6875 0,0.3795 -0.307,0.6875 -0.6875,0.6875 h -7.3141 c -0.2704,0.6774 -0.9294,1.15588 -1.6995,1.15588 -0.7709,0 -1.429,-0.47848 -1.7004,-1.15588 H 7.3542 c -0.3795,0 -0.6875,-0.308 -0.6875,-0.6875 0,-0.3795 0.308,-0.6875 0.6875,-0.6875 h 2.5776 c 0.2714,-0.6774 0.9295,-1.1559 1.7004,-1.1559 z"
       fill="#ffffff"
       id="path2039" />
  </g>
  <defs
     id="defs2046">
    <clipPath
       id="clip0_1_1401">
      <rect
         width="28"
         height="28"
         fill="#ffffff"
         id="rect2043"
         x="0"
         y="0" />
    </clipPath>
  </defs>
</svg>

<svg width="28" height="28" viewBox="0 0 28 28" fill="none" xmlns="http://www.w3.org/2000/svg">
<g clip-path="url(#clip0_1_1401)">
<path d="M24.856 3.14401C23.13 1.52161 20.7739 0.601214 18.1738 0.256914C15.6907 -0.072186 14 0.00881404 14 0.00881404C14 0.00881404 12.309 -0.072186 9.82579 0.256914C7.22579 0.601214 4.86979 1.52161 3.14429 3.14401C1.52149 4.86981 0.601191 7.22591 0.256691 9.82591C-0.0724094 12.3089 0.0088906 13.9999 0.0088906 13.9999C0.0088906 13.9999 -0.0724094 15.6907 0.256691 18.1739C0.601191 20.7737 1.52149 23.13 3.14409 24.8558C4.86979 26.4784 7.22579 27.3986 9.82579 27.7433C12.309 28.0722 14 27.9912 14 27.9912C14 27.9912 15.6907 28.0722 18.1738 27.7433C20.7739 27.3986 23.13 26.4784 24.8556 24.8558C26.4786 23.13 27.3988 20.7737 27.7433 18.1739C28.0722 15.6907 27.9912 13.9999 27.9912 13.9999C27.9912 13.9999 28.0722 12.3089 27.7433 9.82591C27.3988 7.22591 26.4786 4.86981 24.856 3.14401Z" fill="#6B8EA6"/>
<path d="M11.6322 17.8214C12.4023 17.8214 13.0613 18.2999 13.3317 18.9773H20.6458C21.0263 18.9773 21.3333 19.2844 21.3333 19.6648C21.3333 20.0443 21.0263 20.3523 20.6458 20.3523H13.3317C13.0613 21.0297 12.4023 21.5073 11.6322 21.5073C10.8613 21.5073 10.2032 21.0297 9.9318 20.3523H7.3542C6.9747 20.3523 6.6667 20.0443 6.6667 19.6648C6.6667 19.2844 6.9747 18.9773 7.3542 18.9773H9.9318C10.2032 18.2999 10.8613 17.8214 11.6322 17.8214ZM16.6354 12.1571C17.4063 12.1571 18.0645 12.6356 18.3358 13.3131H20.6458C21.0263 13.3131 21.3333 13.6211 21.3333 14.0006C21.3333 14.3801 21.0263 14.6881 20.6458 14.6881H18.3358C18.0645 15.3655 17.4063 15.8431 16.6354 15.8431C15.8645 15.8431 15.2063 15.3655 14.9359 14.6881H7.3542C6.9747 14.6881 6.6667 14.3801 6.6667 14.0006C6.6667 13.6211 6.9747 13.3131 7.3542 13.3131H14.9359C15.2063 12.6356 15.8645 12.1571 16.6354 12.1571ZM11.6322 6.49292C12.4023 6.49292 13.0613 6.97142 13.3317 7.64882H20.6458C21.0263 7.64882 21.3333 7.95682 21.3333 8.33632C21.3333 8.71582 21.0263 9.02382 20.6458 9.02382H13.3317C13.0613 9.70122 12.4023 10.1797 11.6322 10.1797C10.8613 10.1797 10.2032 9.70122 9.9318 9.02382H7.3542C6.9747 9.02382 6.6667 8.71582 6.6667 8.33632C6.6667 7.95682 6.9747 7.64882 7.3542 7.64882H9.9318C10.2032 6.97142 10.8613 6.49292 11.6322 6.49292Z" fill="white"/>
</g>
<defs>
<clipPath id="clip0_1_1401">
<rect width="28" height="28" fill="white"/>
</clipPath>
</defs>
</svg>
